Obsidian/actions/22s/draw-square-inverted-corners.svg

<svg height="22" viewBox="0 0 22 22" width="22" xmlns="http://www.w3.org/2000/svg"><path d="m5 1v3c0 .55228-.44772 1-1 1h-3v6h3c.55228 0 1 .44772 1 1v3h6v-3c0-.55228.44772-1 1-1h3v-6h-3c-.55228 0-1-.44772-1-1v-3z" fill="#bebebe" transform="translate(3 3)"/></svg>

<svg xmlns="http://www.w3.org/2000/svg" width="22" height="22" viewBox="0 0 22 22">
 <defs>
  <style id="current-color-scheme" type="text/css">
   .ColorScheme-Text { color:#bebebe; } .ColorScheme-Highlight { color:#4285f4; }
  </style>
 </defs>
 <path style="fill:currentColor" class="ColorScheme-Text" d="M 5 1 L 5 4 C 5 4.55228 4.55228 5 4 5 L 1 5 L 1 11 L 4 11 C 4.55228 11 5 11.44772 5 12 L 5 15 L 11 15 L 11 12 C 11 11.44772 11.44772 11 12 11 L 15 11 L 15 5 L 12 5 C 11.44772 5 11 4.55228 11 4 L 11 1 L 5 1 z" transform="translate(3 3)"/>
</svg>
